!!!COM: Palestrina, Giovanni Perluigi da
!!!OPR: Missa Ave Maria (1596)
!!!OMD: Sanctus
!!!OTL: Pleni
**kern	**kern	**kern	**kern
*Ibass	*Itenor	*Itenor	*Icalto
!Bassus	!Tenor 2	!Tenor 1	!Altus
*clefF4	*clefGv2	*clefGv2	*clefG2
*k[b-]	*k[b-]	*k[b-]	*k[b-]
*F:ion	*F:ion	*F:ion	*F:ion
*M4/2	*M4/2	*M4/2	*M4/2
=46	=46	=46	=46
0r	0r	0B-	0r
=47	=47	=47	=47
0r	0r	1A	0r
.	.	2B-	.
.	.	[2d	.
=48	=48	=48	=48
0r	0r	4d]	0f
.	.	4c	.
.	.	2.B-	.
.	.	4A	.
.	.	4A	.
.	.	8G	.
.	.	8F	.
=49	=49	=49	=49
0r	0r	1G	1e
.	.	2.F	2f
.	.	.	[2a
.	.	4G	.
=50	=50	=50	=50
1r	0r	2A	4a]
.	.	.	4g
.	.	4B-	2.f
.	.	4c	.
[1B-	.	4d	.
.	.	4e	4e
.	.	[2f	4d
.	.	.	4c
=51	=51	=51	=51
1B-]	0r	2f]	1d
.	.	4e	.
.	.	4d	.
1A	.	2e	2c
.	.	2f	[2cc
=52	=52	=52	=52
1B-	0r	2d	4cc]
.	.	.	4b-
.	.	2.g	2b-
1d	.	.	2a
.	.	4f	.
.	.	[2f	4g
.	.	.	4f
=53	=53	=53	=53
2.c	0r	2f]	1g
.	.	2e	.
4B-	.	.	.
4A	.	2c	1r
4G	.	.	.
[2F	.	[2d	.
=54	=54	=54	=54
4F]	0r	4d]	0f
4E	.	4c	.
4D	.	1c	.
4C	.	.	.
1D	.	.	.
.	.	2B	.
=55	=55	=55	=55
1C	0r	2.c	1e
.	.	4B-	.
1D	.	2A	2f
.	.	4F	[2a
.	.	4G	.
=56	=56	=56	=56
1F	1r	4A	4a]
.	.	4B-	4g
.	.	4c	2.f
.	.	4A	.
[1BB-	[1B-	2.d	.
.	.	.	4e
.	.	.	4d
.	.	4e	4c
=57	=57	=57	=57
1BB-]	1B-]	1f	1d
2.F	[1A	1f	1c
4E	.	.	.
=58	=58	=58	=58
4D	1A_	1r	2.f
4C	.	.	.
1D	.	.	.
.	.	.	4e
.	1A_	1f	4d
.	.	.	4c
2D	.	.	[2d
=59	=59	=59	=59
1AA	1A]	1e	2d]
.	.	.	2c#
[1D	[1A	2f	2d
.	.	[2a	[2f
=60	=60	=60	=60
1D]	1A]	4a]	4f]
.	.	4g	4e
.	.	2.f	2.d
[1BB-	1B-	.	.
.	.	4e	4c
.	.	4d	4B-
.	.	4c	4A
=61	=61	=61	=61
1BB-]	[0F	1d	2B-
.	.	.	1b-
2r	.	1c	.
[2F	.	.	2a
=62	=62	=62	=62
4F]	1F]	2r	1a
4E	.	.	.
1D	.	1f	.
.	[1A	.	2r
4C	.	4e	[2a
4BB-	.	4d	.
=63	=63	=63	=63
2.AA	1A]	[0c	2a]
.	.	.	4g
4BB-	.	.	4f
[1C	1G	.	2e
.	.	.	[2f
=64	=64	=64	=64
1C]	1G	1c]	2f]
.	.	.	2e
[1BB-	[1B-	[1d	2f
.	.	.	4B-
.	.	.	4c
=65	=65	=65	=65
1BB-]	1B-]	2d]	4d
.	.	.	4e
.	.	4c	4f
.	.	4B-	4g
1F	[1c	4A	1a
.	.	4F	.
.	.	[2f	.
=66	=66	=66	=66
1r	0c]	2f]	1g
.	.	2e	.
[1F	.	1f	[1a
=67	=67	=67	=67
2F]	0r	2r	1a]
2D	.	1f	.
1D	.	.	2r
.	.	2d	[2f
=68	=68	=68	=68
2.BB-	0r	2d	2f]
.	.	2.f	2d
4C	.	.	.
2D	.	.	2d
.	.	4e	.
2BB-	.	[2d	[2f
=69	=69	=69	=69
1F	0r	2d]	4f]
.	.	.	4g
.	.	4c	1a
.	.	4B-	.
1r	.	4A	.
.	.	4B-	.
.	.	4c	4g
.	.	4d	4f
=70	=70	=70	=70
1r	0r	4e	2g
.	.	4c	.
.	.	1f	2a
2r	.	.	1g
[2c	.	4e	.
.	.	4d	.
=71	=71	=71	=71
2c]	0r	2e	2r
2A	.	2f	2.cc
2A	.	1e	.
.	.	.	4b-
[2c	.	.	2a
=72	=72	=72	=72
4c]	0r	0r	2g
4B-	.	.	.
1A	.	.	2f
.	.	.	2e
4G	.	.	[2f
4F	.	.	.
=73	=73	=73	=73
1G	0r	1r	2f]
.	.	.	2e
[1F	.	2r	1f
.	.	[2c	.
=74	=74	=74	=74
1F_	0r	2c]	2r
.	.	2A	1cc
1F_	.	2A	.
.	.	[2c	2a
=75	=75	=75	=75
1F]	0r	4c]	2a
.	.	4B-	.
.	.	4A	2.cc
.	.	4G	.
1r	.	2F	.
.	.	.	4b-
.	.	[2f	[2a
=76	=76	=76	=76
1.c	0r	2f]	2a]
.	.	4e	4g
.	.	4d	4f
.	.	2e	2g
2A	.	2f	[2a
=77	=77	=77	=77
2A	1r	2e	2a]
1B-	.	1d	2f
.	[1f	.	1b-
4A	.	4c	.
4G	.	4B-	.
=78	=78	=78	=78
1F	1f]	1c	1.a
1C	[1e	2r	.
.	.	[2c	4g
.	.	.	4f
=79	=79	=79	=79
2r	1e_	2c]	2g
1c	.	2A	2a
.	1e_	2A	1a
2A	.	[2c	.
=80	=80	=80	=80
2.A	1e]	4c]	0r
.	.	4B-	.
.	.	1A	.
4B-	.	.	.
1c	[1e	.	.
.	.	4G	.
.	.	4F	.
=81	=81	=81	=81
1C	1e]	1G	2r
.	.	.	1cc
2.F	1f	2F	.
.	.	[2f	2a
4G	.	.	.
=82	=82	=82	=82
1A	[0c	2f]	2a
.	.	2e	2.cc
1F	.	2f	.
.	.	.	4b-
.	.	4F	[2a
.	.	4G	.
=83	=83	=83	=83
1F	1c]	4A	2a]
.	.	4B-	.
.	.	2.c	4g
.	.	.	4f
2C	[1e	.	2g
.	.	4d	.
[2C	.	4e	4c
.	.	4f	4d
=84	=84	=84	=84
4C]	1e]	2g	4e
4D	.	.	4f
4E	.	2.G	4g
4F	.	.	4a
2.G	1d	.	[1b-
.	.	4A	.
.	.	4B-	.
4A	.	4c	.
=85	=85	=85	=85
4B-	1d	4d	2b-]
4c	.	4e	.
2d	.	2.f	4a
.	.	.	4g
2.D	[1f	.	2.a
.	.	4e	.
.	.	[2d	.
4E	.	.	4g
=86	=86	=86	=86
4F	1f]	2d]	4f
4G	.	.	4e
2A	.	1c	4d
.	.	.	4c
[1G	[1g	.	[1d
.	.	4B	.
.	.	4A	.
=87	=87	=87	=87
1G]	0g]	1B	1d]
1C	.	1c	1e
*-	*-	*-	*-
!!!CDT: 1525/^1526/-1594/2/2
!!!OCY: Italia
!!!AGN: Mass (Tenor)
!!!AST: renaissance, vocal
!!!ASW: Motet 1563 (Palestrina)
!!!PWK: Masses, Book 6
!!!RNB: Cadence finals: C
!!!YOR: Le Opere Complete, v. 21, p. 142
!!!YOO: Rome, Italy: Fratelli Scalera
!!!END: 1992//
!!!EED: John Miller
!!!YEC: Copyright 2000, John Miller
!!!YEN: United States of America
!!!YEM: Rights to all derivative electronic formats reserved.
!!!YEM: Refer to licensing agreement for further details.
!!!YEM: This file must be accompanied by the licensing agreement.
!!!YEM: A copy of the licensing agreement may be found at http://www.music-cog.ohio-state.edu/HumdrumDatabases/Palestrina/license.txt
!!!EMD: converted to Humdrum by Bret Aarden
